public/alergenos/moluscos.svg

<?xml version="1.0" encoding="UTF-8" standalone="no"?>
<!-- Created with Inkscape (http://www.inkscape.org/) -->

<svg
   xmlns:dc="http://purl.org/dc/elements/1.1/"
   xmlns:cc="http://creativecommons.org/ns#"
   xmlns:rdf="http://www.w3.org/1999/02/22-rdf-syntax-ns#"
   xmlns:svg="http://www.w3.org/2000/svg"
   xmlns="http://www.w3.org/2000/svg"
   xmlns:sodipodi="http://sodipodi.sourceforge.net/DTD/sodipodi-0.dtd"
   xmlns:inkscape="http://www.inkscape.org/namespaces/inkscape"
   width="262.20471"
   height="372.04724"
   id="svg4209"
   version="1.1"
   inkscape:version="0.48.5 r10040"
   sodipodi:docname="IconoAlergenoMoluscos-Mollusks.svg">
  <defs
     id="defs4211" />
  <sodipodi:namedview
     id="base"
     pagecolor="#ffffff"
     bordercolor="#666666"
     borderopacity="1.0"
     inkscape:pageopacity="0.0"
     inkscape:pageshadow="2"
     inkscape:zoom="0.20031052"
     inkscape:cx="930.07201"
     inkscape:cy="677.36858"
     inkscape:document-units="px"
     inkscape:current-layer="layer1"
     showgrid="false"
     inkscape:window-width="1280"
     inkscape:window-height="924"
     inkscape:window-x="0"
     inkscape:window-y="28"
     inkscape:window-maximized="1" />
  <metadata
     id="metadata4214">
    <rdf:RDF>
      <cc:Work
         rdf:about="">
        <dc:format>image/svg+xml</dc:format>
        <dc:type
           rdf:resource="http://purl.org/dc/dcmitype/StillImage" />
        <dc:title></dc:title>
      </cc:Work>
    </rdf:RDF>
  </metadata>
  <g
     inkscape:label="Capa 1"
     inkscape:groupmode="layer"
     id="layer1"
     transform="translate(0,-680.31494)">
    <g
       id="g3566"
       transform="matrix(5.5766335,0,0,5.5766335,-1055.5752,-1091.6577)">
      <text
         sodipodi:linespacing="125%"
         id="text4033-9-17"
         y="376.13867"
         x="212.6778"
         style="font-size:15px;font-style:normal;font-weight:normal;text-align:center;line-height:125%;letter-spacing:0px;word-spacing:0px;text-anchor:middle;fill:#000000;fill-opacity:1;stroke:none;font-family:Sans"
         xml:space="preserve"><tspan
           style="font-size:5.5px"
           id="tspan4037-1-8"
           y="376.13867"
           x="212.6778"
           sodipodi:role="line">MOLUSCOS</tspan></text>
      <g
         id="g3555">
        <path
           sodipodi:type="arc"
           style="fill:#4dc4d5;fill-opacity:1;stroke:#4dc4d5;stroke-width:3;stroke-linecap:round;stroke-linejoin:round;stroke-miterlimit:4;stroke-opacity:1;stroke-dasharray:none;stroke-dashoffset:0"
           id="path3230-2-1"
           sodipodi:cx="21.573027"
           sodipodi:cy="29.287827"
           sodipodi:rx="18.363815"
           sodipodi:ry="18.720394"
           d="m 39.936842,29.287827 c 0,10.338988 -8.22176,18.720394 -18.363815,18.720394 -10.142055,0 -18.3638157,-8.381406 -18.3638157,-18.720394 0,-10.338989 8.2217607,-18.720395 18.3638157,-18.720395 10.142055,0 18.363815,8.381406 18.363815,18.720395 z"
           transform="matrix(1.0403305,0,0,1.0205147,190.35154,316.75921)" />
        <g
           id="g3981"
           transform="translate(-389.31718,317.89818)">
          <path
             sodipodi:nodetypes="cccccccccccccccccccccccccccccccccccccccccccccccccccccccccccccc"
             inkscape:connector-curvature="0"
             id="path3192"
             d="m 598.75897,15.704842 -1.0625,0.15625 c -0.53903,0.132834 -0.99362,0.364165 -1.26723,0.65625 l -0.95152,0.78125 -0.8125,0.71875 -1.03446,0.48277 -1.02804,0.23598 -1.28125,0.3125 -1.03125,0.96875 -0.625,1.1875 -0.65625,1.34375 c -0.1568,0.221436 -0.5024,0.411405 -0.97787,0.57973 -0.3846,0.219236 -0.46307,0.259066 -0.9451,0.724662 -0.26044,0.319855 -0.45009,0.710497 -0.44612,1.294763 l 0.0933,1.014527 0.19662,0.752703 c -0.19186,0.259415 -0.0378,0.726371 0.0167,1.133615 0.0955,0.691102 0.24476,1.341938 0.55169,1.874493 0.40019,0.79741 1.13479,1.59482 1.78345,2.39223 l 2.09375,2.009122 2.41486,2.036655 1.84375,1.28125 -0.3125,0.71875 -0.71875,1.09375 c -0.17702,0.291667 -0.28498,0.583333 -0.25,0.875 0.0212,0.639065 0.27976,0.945839 0.5625,1.21875 0.58333,0.178782 1.16667,0.303534 1.75,0.21875 l 11.5625,0 0.96875,-0.375 c 0.30193,-0.133513 0.5253,-0.361308 0.5625,-0.8125 0.0457,-0.3173 0.02,-0.610839 -0.0937,-0.875 0.004,-0.744588 -0.79167,-1.375 -1.1875,-2.0625 0.90171,-0.529911 1.84644,-0.993727 2.59105,-1.837838 l 2.7527,-2.412162 1.90625,-1.90625 0.875,-1.34375 0.46875,-1.125 0.22416,-1.065203 0.0258,-0.684797 0,-0.3125 0.0399,-0.775338 c 0.0833,-0.167998 0.12681,-0.745135 0.21014,-1.068412 0.0671,-0.375 -0.1551,-0.75 -0.34375,-1.125 l -0.37508,-0.53125 -0.88581,-0.400338 -0.80169,-0.505912 -0.28666,-0.525338 c 0.0628,-0.296798 -0.36529,-0.786086 -0.49459,-1.130912 -0.13844,-0.368481 -0.57602,-0.916443 -0.96875,-1.4375 l -0.65574,-0.446115 -1.34426,-0.428885 -1.03125,-0.25 -1.1875,-0.5625 -1.03125,-0.9375 c -0.18135,-0.291667 -0.84911,-0.583333 -1.375,-0.875 l -0.71875,-0.25 -1.1875,0 -1.6875,0.40625 -0.71875,0.0625 -1.19341,-0.0059 -1.27534,-0.306588 z"
             style="fill:#f9f9f9;fill-opacity:1;stroke:#f9f9f9;stroke-width:0.05;stroke-linecap:round;stroke-linejoin:round;stroke-miterlimit:4;stroke-opacity:1;stroke-dasharray:none" />
          <g
             id="g3974">
            <path
               style="fill:#4dc4d5;fill-opacity:1;stroke:#4dc4d5;stroke-width:0.05;stroke-linecap:round;stroke-linejoin:round;stroke-miterlimit:4;stroke-opacity:1;stroke-dasharray:none"
               d="m 591.15966,23.758062 -0.21142,0.211415 -0.22551,0.239604 -0.18322,0.155038 -0.22551,0.169133 -0.26779,0.140943 -0.23961,0.126849 7.78009,7.892841 z"
               id="path3964"
               inkscape:connector-curvature="0" />
            <path
               style="fill:#4dc4d5;fill-opacity:1;stroke:#4dc4d5;stroke-width:0.05;stroke-linecap:round;stroke-linejoin:round;stroke-miterlimit:4;stroke-opacity:1;stroke-dasharray:none"
               d="m 596.65646,19.402905 -0.22551,0.183227 -0.21142,0.183227 -0.22551,0.140943 -0.21141,0.126849 -0.0705,0.01409 -0.14095,0.05638 -0.25369,0.169132 -0.23961,0.05638 4.93303,11.867449 z"
               id="path3966"
               inkscape:connector-curvature="0" />
            <path
               style="fill:#4dc4d5;fill-opacity:1;stroke:#4dc4d5;stroke-width:0.05;stroke-linecap:round;stroke-linejoin:round;stroke-miterlimit:4;stroke-opacity:1;stroke-dasharray:none"
               d="m 601.78681,18.148507 0.28188,0.08457 0.19732,0.01409 0.15504,0 0.26779,-0.01409 0.2537,0.01409 0.2678,-0.01409 0.14094,-0.01409 0.18323,-0.04228 0.0705,0 -0.94432,14.404434 z"
               id="path3968"
               inkscape:connector-curvature="0" />
            <path
               style="fill:#4dc4d5;fill-opacity:1;stroke:#4dc4d5;stroke-width:0.05;stroke-linecap:round;stroke-linejoin:round;stroke-miterlimit:4;stroke-opacity:1;stroke-dasharray:none"
               d="m 608.70714,19.402905 0.25369,0.211416 0.19733,0.169132 0.2396,0.140943 0.22551,0.08457 0.0564,0.02819 0.15503,0.140944 0.19733,0.08457 0.25369,0.112755 -4.96121,11.881544 z"
               id="path3970"
               inkscape:connector-curvature="0" />
            <path
               style="fill:#4dc4d5;fill-opacity:1;stroke:#4dc4d5;stroke-width:0.05;stroke-linecap:round;stroke-linejoin:round;stroke-miterlimit:4;stroke-opacity:1;stroke-dasharray:none"
               d="m 614.23212,23.743968 0.19733,0.211415 0.18322,0.239604 0.29598,0.22551 0.32417,0.197321 0.32417,0.169132 -7.83646,7.977407 z"
               id="path3972"
               inkscape:connector-curvature="0" />
          </g>
        </g>
      </g>
    </g>
  </g>
</svg>

<svg xmlns="http://www.w3.org/2000/svg" xmlns:xlink="http://www.w3.org/1999/xlink" width="80" zoomAndPan="magnify" viewBox="0 0 60 67.92" height="80" preserveAspectRatio="xMidYMid meet" version="1.0"><path stroke-linecap="round" transform="matrix(1.325997, 0, 0, 1.304315, 1.394219, -8.073695)" fill-opacity="1" fill="#4dc4d5" fill-rule="nonzero" stroke-linejoin="round" d="M 39.937761 29.286399 C 39.937761 39.627674 31.715762 48.00731 21.573039 48.00731 C 11.430316 48.00731 3.208317 39.627674 3.208317 29.286399 C 3.208317 18.94812 11.430316 10.568483 21.573039 10.568483 C 31.715762 10.568483 39.937761 18.94812 39.937761 29.286399 Z M 39.937761 29.286399 " stroke="#4dc4d5" stroke-width="3" stroke-opacity="1" stroke-miterlimit="4"/><path stroke-linecap="round" transform="matrix(1.274592, 0, 0, 1.278095, -737.446835, -6.617974)" fill-opacity="1" fill="#f9f9f9" fill-rule="nonzero" stroke-linejoin="round" d="M 598.759016 15.703913 L 597.695563 15.859785 C 597.156175 15.994262 596.702598 16.226541 596.42984 16.516891 L 595.476716 17.299305 L 594.664569 18.017537 L 593.631763 18.500433 L 592.602021 18.735768 L 591.320974 19.047511 L 590.291233 20.01636 L 589.666033 21.205263 L 589.010185 22.550038 C 588.850821 22.770092 588.507573 22.959582 588.032544 23.127679 C 587.646391 23.347733 587.566709 23.387465 587.08555 23.852024 C 586.82505 24.172936 586.635038 24.564143 586.641167 25.147897 L 586.733108 26.162591 L 586.92925 26.914442 C 586.739238 27.174228 586.892473 27.641842 586.947638 28.048331 C 587.042644 28.739056 587.18975 29.390049 587.499285 29.921846 C 587.897697 30.719542 588.633226 31.517238 589.282944 32.314934 L 591.376139 34.322926 L 593.791127 36.361482 L 595.633016 37.642074 L 595.320416 38.360306 L 594.603275 39.454463 C 594.425522 39.747869 594.318257 40.038218 594.351969 40.328567 C 594.373422 40.970391 594.633922 41.276021 594.915875 41.548032 C 595.498169 41.728354 596.080463 41.850607 596.665822 41.768086 L 608.228959 41.768086 L 609.197407 41.392161 C 609.497748 41.257683 609.721471 41.031517 609.758248 40.579184 C 609.804218 40.261328 609.779701 39.967922 609.666307 39.70508 C 609.669371 38.959342 608.872548 38.329743 608.4772 37.642074 C 609.378224 37.113333 610.325218 36.648775 611.069942 35.805234 L 613.822048 33.393809 L 615.728296 31.486675 L 616.601737 30.1419 L 617.070637 29.01718 L 617.294361 27.953586 L 617.321943 27.265917 L 617.321943 26.954174 L 617.361784 26.180928 C 617.444531 26.012832 617.487437 25.43519 617.570184 25.111222 C 617.637608 24.735296 617.416949 24.362427 617.226937 23.986501 L 616.853043 23.454704 L 615.967343 23.054328 L 615.16439 22.550038 L 614.879372 22.024353 C 614.940666 21.727891 614.514672 21.235826 614.38289 20.89352 C 614.244978 20.523707 613.806725 19.976628 613.414443 19.454 L 612.758595 19.007779 L 611.416254 18.579897 L 610.383448 18.32928 L 609.197407 17.766919 L 608.1646 16.828634 C 607.983783 16.538285 607.315677 16.247936 606.791612 15.95453 L 606.071406 15.703913 L 604.885365 15.703913 L 603.196711 16.110402 L 602.476505 16.174584 L 601.284335 16.168472 L 600.009417 15.859785 Z M 598.759016 15.703913 " stroke="#f9f9f9" stroke-width="0.05" stroke-opacity="1" stroke-miterlimit="4"/><path stroke-linecap="round" transform="matrix(1.274592, 0, 0, 1.278095, -737.446835, -6.617974)" fill-opacity="1" fill="#4dc4d5" fill-rule="nonzero" stroke-linejoin="round" d="M 591.158545 23.757278 L 590.94708 23.968163 L 590.723356 24.209611 L 590.539474 24.365483 L 590.312686 24.53358 L 590.046056 24.67417 L 589.807009 24.802535 L 597.585234 32.693915 Z M 591.158545 23.757278 " stroke="#4dc4d5" stroke-width="0.05" stroke-opacity="1" stroke-miterlimit="4"/><path stroke-linecap="round" transform="matrix(1.274592, 0, 0, 1.278095, -737.446835, -6.617974)" fill-opacity="1" fill="#4dc4d5" fill-rule="nonzero" stroke-linejoin="round" d="M 596.656628 19.402043 L 596.42984 19.585421 L 596.218375 19.7688 L 595.994651 19.90939 L 595.783187 20.037754 L 595.712698 20.04998 L 595.571722 20.108049 L 595.317351 20.276146 L 595.078304 20.334216 L 600.009417 32.20185 Z M 596.656628 19.402043 " stroke="#4dc4d5" stroke-width="0.05" stroke-opacity="1" stroke-miterlimit="4"/><path stroke-linecap="round" transform="matrix(1.274592, 0, 0, 1.278095, -737.446835, -6.617974)" fill-opacity="1" fill="#4dc4d5" fill-rule="nonzero" stroke-linejoin="round" d="M 601.786946 18.148958 L 602.068899 18.234534 L 602.265041 18.246759 L 602.421341 18.246759 L 602.68797 18.234534 L 602.942341 18.246759 L 603.20897 18.234534 L 603.349947 18.219253 L 603.533829 18.176464 L 603.604317 18.176464 L 602.660388 32.580832 Z M 601.786946 18.148958 " stroke="#4dc4d5" stroke-width="0.05" stroke-opacity="1" stroke-miterlimit="4"/><path stroke-linecap="round" transform="matrix(1.274592, 0, 0, 1.278095, -737.446835, -6.617974)" fill-opacity="1" fill="#4dc4d5" fill-rule="nonzero" stroke-linejoin="round" d="M 608.707053 19.402043 L 608.961424 19.612928 L 609.157565 19.784081 L 609.396612 19.924671 L 609.623401 20.010248 L 609.678565 20.037754 L 609.834865 20.178344 L 610.031007 20.263921 L 610.285377 20.373948 L 605.323618 32.256864 Z M 608.707053 19.402043 " stroke="#4dc4d5" stroke-width="0.05" stroke-opacity="1" stroke-miterlimit="4"/><path stroke-linecap="round" transform="matrix(1.274592, 0, 0, 1.278095, -737.446835, -6.617974)" fill-opacity="1" fill="#4dc4d5" fill-rule="nonzero" stroke-linejoin="round" d="M 614.232719 23.745053 L 614.42886 23.955938 L 614.612743 24.19433 L 614.910019 24.420496 L 615.231813 24.619156 L 615.556672 24.787253 L 607.720218 32.76421 Z M 614.232719 23.745053 " stroke="#4dc4d5" stroke-width="0.05" stroke-opacity="1" stroke-miterlimit="4"/></svg>
